!!!OTL: Die verkaufte Muellerin
!!!OTL-incipit:Es wollt ein Mueller frueh aufstehn,
!!!ARE: Europa, Mitteleuropa, Deutschland (BRD), Schleswig - Holstein, Dithmarschen
!!!YOR: 4, S. 342
!!    1881 gedruckt
!!!SCT: Q0086P
!!!TXL: @@DE
!!!YEM: Copyright 1995, estate of Helmut Schaffrath.
**kern	**text
*ICvox	*
*M4/4	*
*met(c)	*
*k[f#]	*
*G:	*
!LO:TX:a:t=31 Dithmarſchen	!
{4d	Es
=1	=1
4g	wollt
4g	ein
4a	Müller
4a	.
=2	=2
4b	früh
8bL	auf-
8aJ	.
4g}	-ſtehn,
{8gL	wollt
8aJ	.
=3	=3
4b	in
4b	den
4cc	Wald
8ccL	ſpa-
8eeJ	.
=4	=4
4dd	-ʒie-
8ddL	-ren-
8ccJ	.
4b}	-gehn,
{4dd	ſpa-
=5	=5
4ee	-ʒie-
4dd	-ren
4cc	in
4b	dem
=6	=6
2a	Wal-
4g}	-de.
{4dd	ſpa-
=7	=7
4ee	-ʒie-
4dd	-ren
4cc	in
4b	dem
=8	=8
2a	Wal-
4g}	-de.
==	==
!!!AGN: Ballade, Menschenhandel, Rettung, Hinrichtung
!!!ONB: ESAC (Essen Associative Code) Database: BALLADE
!!!AMT: simple quadruple
!!!AIN: vox
!!!EED: Helmut Schaffrath
!!!EEV: 1.0
!!!source: Deutsche Volkslieder mit ihren Melodien. Herausgegeben vom Deutschen Volksliedarchiv. Vierter Band. Berlin 1959.
!!!page: 342
!!!ENC: Anna Maria Matuszewska
!!!EEV: 2025/02/27
*-	*-
